X:4
T: Around The Fairy Fort
C: Vincent Broderick
R: barndance
M: 4/4
L: 1/8
K: Dmaj
   DE | "D" F2F2 FEDF | "A" A2A2 A2FA     | "G" B2B2 "D" AFDE | "A" F2E2 E2DE     |
        "D" F2F2 FEDF | "A" A2A2 A2FA     | "G" dcBA "A" BAFE | "D" F2D2 D2      :|
|: A2 | "D" d2d2 d2cd | "A" e2e2 e2fe     | "G" defg "A" agfe | "Bm" f2B2 "Bm/F#" B2AB  |
        "D" d2d2 d2cd | "A" e2e2 e2fe     | "G" dcBA "A" BAFE | "D" F2D2 D2      :|
|: A2 | "D" F2DF A2FA | "G" B2FB "D" A2DE | "D" F2DF A2FA     | "A" B2 E2 E2 DE   |
        "D" F2DF A2FA | "G" B2FB "D" A2FA | "G" dcBA "A" BAFE | "D" F2 D2 D2     :|


